packages/opendesign/src/icons/svgs/fill/arrow-traingle-up.svg

<?xml version="1.0" encoding="UTF-8"?>
<svg width="24px" height="24px" viewBox="0 0 24 24" version="1.1" xmlns="http://www.w3.org/2000/svg" xmlns:xlink="http://www.w3.org/1999/xlink">
    <title>arrow-traingle-up</title>
    <g id="arrow-traingle-up" stroke="none" stroke-width="1" fill="none" fill-rule="evenodd">
        <path d="M12.3841106,9.46093277 L16.3165898,14.1799078 C16.4933719,14.3920462 16.4647098,14.7073286 16.2525714,14.8841106 C16.1627139,14.9589919 16.0494474,15 15.9324792,15 L8.06752081,15 C7.79137843,15 7.56752081,14.7761424 7.56752081,14.5 C7.56752081,14.3830317 7.60852892,14.2697653 7.68341017,14.1799078 L11.6158894,9.46093277 C11.7926714,9.24879432 12.1079538,9.22013229 12.3200922,9.39691433 C12.3433237,9.41627394 12.364751,9.43770124 12.3841106,9.46093277 Z" id="path1" fill="#000000"></path>
    </g>
</svg>

<!-- Generated by IcoMoon.io -->
<svg version="1.1" xmlns="http://www.w3.org/2000/svg" width="24" height="24" viewBox="0 0 24 24">
<title>arrow-traingle-up</title>
<path d="M12.384 9.461l3.932 4.719c0.177 0.212 0.148 0.527-0.064 0.704-0.090 0.075-0.203 0.116-0.32 0.116h-7.865c-0.276 0-0.5-0.224-0.5-0.5 0-0.117 0.041-0.23 0.116-0.32l3.932-4.719c0.177-0.212 0.492-0.241 0.704-0.064 0.023 0.019 0.045 0.041 0.064 0.064z"></path>
</svg>
